img/technology-card-2.svg

<svg width="66" height="66" viewBox="0 0 66 66" fill="none" xmlns="http://www.w3.org/2000/svg">
<path fill-rule="evenodd" clip-rule="evenodd" d="M33.9732 3.48691L55.8744 10.9506C56.4094 11.1375 56.8477 11.7498 56.8348 12.317V43.4092C56.8348 43.9828 56.4674 44.7305 56.0227 45.0785L33.8057 62.3906C33.5865 62.5646 33.29 62.6549 32.9936 62.6549C32.6971 62.6549 32.407 62.5646 32.1814 62.3906L9.96445 45.0785C9.51973 44.724 9.15234 43.9764 9.15234 43.4092V12.317C9.15234 11.7498 9.59063 11.1311 10.1256 10.9506L32.0268 3.48691C32.291 3.39668 32.6455 3.35156 33 3.35156C33.3545 3.35156 33.709 3.39668 33.9732 3.48691ZM33 57.1377L52.207 42.1717V14.6115L33 8.06309L13.793 14.6115V42.1717L33 57.1377Z" fill="#ED4C5C"/>
<path fill-rule="evenodd" clip-rule="evenodd" d="M25.9682 34.0828L20.973 39.0779C20.8771 39.1748 20.8233 39.3057 20.8233 39.4421C20.8233 39.5785 20.8771 39.7093 20.973 39.8062L23.1645 41.9977C23.3643 42.1975 23.693 42.1975 23.8928 41.9977L28.8879 37.0025C32.4779 39.2648 37.2732 38.833 40.3992 35.707C44.0279 32.0783 44.0279 26.2002 40.3992 22.5715C36.7705 18.9428 30.8924 18.9428 27.2637 22.5715C24.1377 25.6975 23.7059 30.4992 25.9682 34.0828ZM37.4795 25.4912C35.4686 23.4738 32.2008 23.4738 30.1834 25.4912C28.166 27.5086 28.1725 30.7699 30.1834 32.7873C32.1943 34.8047 35.4621 34.8047 37.4795 32.7873C39.4969 30.7764 39.4969 27.5086 37.4795 25.4912Z" fill="#ED4C5C"/>
</svg>

<svg width="66" height="66" fill="none" xmlns="http://www.w3.org/2000/svg"><path fill-rule="evenodd" clip-rule="evenodd" d="M33.973 3.487l21.901 7.464c.535.186.974.799.96 1.366v31.092c0 .574-.367 1.322-.811 1.67L33.806 62.39a1.32 1.32 0 01-.812.264c-.297 0-.587-.09-.813-.264L9.964 45.078c-.444-.354-.812-1.102-.812-1.669V12.317c0-.567.439-1.186.974-1.366l21.9-7.464c.265-.09.62-.135.974-.135.355 0 .709.045.973.135zM33 57.137l19.207-14.965v-27.56L33 8.063l-19.207 6.548v27.56L33 57.139z" fill="#ED4C5C"/><path fill-rule="evenodd" clip-rule="evenodd" d="M25.968 34.083l-4.995 4.995a.518.518 0 000 .728l2.192 2.192c.2.2.528.2.728 0l4.995-4.995a9.287 9.287 0 0011.511-1.296 9.286 9.286 0 000-13.136 9.286 9.286 0 00-13.135 0 9.288 9.288 0 00-1.296 11.512zM37.48 25.49a5.16 5.16 0 00-7.296 7.296 5.154 5.154 0 007.296 0 5.154 5.154 0 000-7.296z" fill="#ED4C5C"/></svg>
